!!!COM:	Martini, Johannes
!!!CDT:	~1440///-~1497//
!!!OTL:	Letatus sum
!!!AGN:	Motet
!!!SCT:	Mar2067
!!!SCA:	Mar2067
!!!voices:	2
**kern	**kern
*staff2	*staff1
*Ivox	*Ivox
*I"Tenor	*I"Superius
*I'T	*I'S
*>[A,B,C,D,E,F,G,H,I,J,K]	*>[A,B,C,D,E,F,G,H,I,J,K]
*>A	*>A
*clefGv2	*clefG2
*k[]	*k[]
*M2/1	*M2/1
*met(C)	*met(C)
=1-	=1-
!!LO:TX:Z=8:t=Choir 1
!!section: In domum Domini
!!!OMD: In domum Domini
1A	1a
2c\	2a/
2c\	2a/
=2	=2
2c\	2a/
2c\	2a/
1c	1a
=3	=3
2B\	2g/
2A/	1a
2c\	.
2B\	[2g/
=4	=4
1A	2g/]
.	2f#i/
1Gl	1gl
=5||	=5||
*>B	*>B
!!section: Stantes erant
!!!OMD: Stantes erant
!!LO:TX:Z=8:t=Choir 2
2A/	2a/
2A/	2a/
2c\	2a/
2c\	2a/
=6	=6
2B\	2g/
2c\	2a/
1d	1b
=7	=7
1A	1a
1r	1r
=8	=8
1c	1a
2c\	2a/
2c\	2a/
=9	=9
2c\	2a/
2c\	2a/
1c	1a
=10	=10
1d	2b\
.	1a
2c\	.
2B\	[2g/
=11	=11
1A	2g/]
.	2f#i/
1Gl	1gl
=12||	=12||
*>C	*>C
!!LO:TX:Z=8:t=Choir 1
!!section: Jerusalem
!!!OMD: Jerusalem
2c\	2a/
2c\	2a/
2c\	2a/
[2c\	[2a/
=13	=13
2c\]	2a/]
2c\	2a/
2c\	2a/
2c\	2a/
=14	=14
2c\	2a/
2c\	2a/
1c	1a
=15	=15
2c\	2a/
1d	1b
2c\	[2a/
=16	=16
1B	2a/]
.	2g#i/
1A	1a
=17	=17
1r	1r
1c	1a
=18	=18
1c	1a
1c	1a
=19	=19
2c\	2a/
2c\	2a/
2c\	2a/
2c\	2a/
=20	=20
2c\	2a/
2c\	2a/
1c	1a
=21	=21
1A	1f
2G/	2g/
[2c\	[2a/
=22	=22
2c\]	2a/]
2B\	1g
1A	.
.	2f#i/
=23	=23
1Gl	1gl
1r	1r
=24||	=24||
*>D	*>D
!!section: Illuc enim
!!!OMD: Illuc enim
!!LO:TX:Z=8:t=Choir 2
1c	1a
2c\	2a/
2c\	2a/
=25	=25
2c\	2a/
2c\	2a/
2c\	2a/
2c\	2a/
=26	=26
1c	1a
2c\	2a/
2c\	2a/
=27	=27
1d	2b\
.	1a
2c\	.
2B\	[2g/
=28	=28
1A	2g/]
.	2f#i/
1G	1g
=29	=29
1c	1a
2c\	2a/
2c\	2a/
=30	=30
2c\	2a/
2c\	2a/
2c\	2a/
2c\	2a/
=31	=31
1d	1b
1r	1r
=32	=32
2c\	2a/
2c\	2a/
2c\	2a/
2c\	2a/
=33	=33
1c	1a
1c	1a
=34	=34
1d	2b\
.	1a
2c\	.
2B\	[2g/
=35	=35
1A	2g/]
.	2f#i/
1Gl	1gl
=36||	=36||
*>E	*>E
!!section: Quia illic
!!!OMD: Quia illic
!!LO:TX:Z=8:t=Choir 1
1c	1a
1c	1a
=37	=37
2c\	2a/
2c\	2a/
2c\	2a/
2c\	2a/
=38	=38
2c\	2a/
2c\	2a/
1c	1a
=39	=39
1B	1g
2c\	2a/
[2d\	[2b\
=40	=40
2d\]	2b\]
2c\	1a
1B	.
.	2g#i/
=41	=41
1A	1a
1r	1r
=42	=42
1c	1a
2c\	2a/
2c\	2a/
=43	=43
1B	1g
1A	1f
=44	=44
2G/	2g/
1c	1a
2B\	[2g/
=45	=45
1A	2g/]
.	2f#i/
1Gl	1gl
=46||	=46||
*>F	*>F
!!section: Rogate
!!!OMD: Rogate
!!LO:TX:Z=8:t=Choir 2
1A	1a
1c	1a
=47	=47
1c	1a
2c\	2a/
2c\	2a/
=48	=48
2c\	2a/
2c\	2a/
1c	1a
=49	=49
1c	2a/
.	1a
2c\	.
2c\	2a/
=50	=50
1B	1b
1r	1r
=51	=51
1c	1a
2c\	2a/
2c\	2a/
=52	=52
2c\	2a/
2c\	2a/
1c	1a
=53	=53
2c\	2a/
2c\	2a/
1d	2b\
.	[2a/
=54	=54
2c\	2a/]
2B\	1g
1A	.
.	2f#i/
=55	=55
1Gl	1gl
1r	1r
=56||	=56||
*>G	*>G
!!section: Fiat pax
!!!OMD: Fiat pax
!!LO:TX:Z=8:t=Choir 1
2c\	2a/
2c\	2a/
1c	1a
=57	=57
2B\	2g/
2c\	2a/
2d\	2b\
2c\	[2a/
=58	=58
1B	2a/]
.	2g#i/
1A	1a
=59	=59
1r	1r
1c	1a
=60	=60
2c\	2a/
2c\	2a/
2c\	2a/
2c\	2a/
=61	=61
1c	1a
2B\	2g/
2A/	2f/
=62	=62
2G/	2g/
2.c\	2.a/
4B\	4g/
2G/	[2g/
=63	=63
1A	2g/]
.	2f#i/
1Gl	1gl
=64||	=64||
*>H	*>H
!!LO:TX:Z=8:t=Choir 2
!!section: Propter fratres
!!!OMD: Propter fratres
1A	1a
2c\	2a/
2c\	2a/
=65	=65
2c\	2a/
2c\	2a/
1c	1a
=66	=66
2c\	2a/
2A/	2a/
2B\	2g/
2c\	2a/
=67	=67
1d	1b
1A	1a
=68	=68
1r	1r
2c\	2a/
2c\	2a/
=69	=69
1c	1a
1c	1a
=70	=70
1d	2b\
.	1a
2c\	.
2B\	[2g/
=71	=71
1A	2g/]
.	2f#i/
1Gl	1gl
=72||	=72||
*>I	*>I
!!LO:TX:Z=8:t=Choir 1
!!section: Propter domum
!!!OMD: Propter domum
2A/	2a/
2A/	2a/
2c\	2a/
2c\	2a/
=73	=73
2c\	2a/
2c\	2a/
1c	1a
=74	=74
2c\	2a/
2.d\	2.b\
4c\	4a/
2A/	[2a/
=75	=75
1B	2a/]
.	2g#i/
1A	1a
=76	=76
1r	1r
2c\	2a/
2c\	2a/
=77	=77
1c	1a
1c	1a
=78	=78
1B	2g/
.	1g
1A	.
.	2f#i/
=79	=79
1Gl	1gl
1r	1r
=80||	=80||
*>J	*>J
!!section: Gloria Patri
!!!OMD: Gloria Patri
!!LO:TX:Z=8:t=Choir 2
2c\	2a/
2c\	2a/
2c\	2a/
2c\	2a/
=81	=81
1B	1g
2A/	2a/
[2d\	[2b\
=82	=82
2d\]	2b\]
2c\	1a
1B	.
.	2g#i/
=83	=83
1A	1a
1r	1r
=84	=84
1c	1a
2c\	2a/
2c\	2a/
=85	=85
1c	1a
1d	2b\
.	[2a/
=86	=86
2c\	2a/]
2B\	1g
1A	.
.	2f#i/
=87	=87
1Gl	1gl
1r	1r
=88||	=88||
*>K	*>K
!!section: Sicut erat
!!!OMD: Sicut erat
!!LO:TX:Z=8:t=Choir 1
2A/	2a/
2A/	2a/
2c\	2a/
2c\	2a/
=89	=89
2c\	2a/
2c\	2a/
2c\	2a/
2c\	2a/
=90	=90
1c	1a
1B	1g
=91	=91
2c\	2a/
1d	1b
2c\	[2a/
=92	=92
1B	2a/]
.	2g#i/
1A	1a
=93	=93
1r	1r
2c\	2a/
2c\	2a/
=94	=94
2c\	2a/
2c\	2a/
1c	1a
=95	=95
2B\	2g/
2A/	2f/
2G/	2g/
[2c\	[2a/
=96	=96
4c\]	4a/]
4B\	4g/
2G/	1g
1A	.
.	2f#i/
=97	=97
0Gl	0gl
==	==
*-	*-
!!!RDF**kern: l=long note in original notation
!!!RDF**kern: i=editorial accidental
!!!ENC:	Chris Gage 02-10-2014
!!!END:	2014/10/05/
!!!EED:	Jesse Rodin
!!!EEV:	2014/10/18/
!!!ONB:	Translated from MusicXML and edited on 2014/10/18/ by Craig Sapp
!!muse2ps: C^@{COM}^i2I150v85,150Q16
